data/styles/clear/style-clear/symbols/waterfall-m.svg

<svg height="24" viewBox="0 0 24 24" width="24"><g fill="none" fill-rule="evenodd"><circle cx="12" cy="12" fill="#fff" opacity=".6" r="12"/><g fill="#14a0c2"><circle cx="12" cy="12" opacity="0" r="11"/><path d="m7.53367864 15c1.15025898 0 1.9170983.5114818 2.68393766.5112262.7668393.0002556 1.1502589-.5112262 2.3005179-.5112262s1.5336787.5109706 2.300518.5112262 1.5336786-.5112262 2.6839376-.5112262c.5034837 0 1.0416745.1933458 1.5336786.3195164v1.0384538s-.9956258-.3355178-1.5336786-.3355178c-.7668393 0-1.5336787.5112262-2.6839376.5112262-1.150259 0-1.5336787-.5109706-2.300518-.5112262-.7871452.0177396-1.150259.5112262-2.3005179.5112262-1.15025902 0-1.91709834-.5114818-2.68393766-.5112262s-1.53367864.3355178-1.53367864.3355178v-1.0384538c.50629799-.1125209 1.00144614-.3195164 1.53367864-.3195164zm-1.53367864 2.3195164c.50629799-.1125209 1.00144615-.3195164 1.53367864-.3195164 1.15025898 0 1.9170983.5114818 2.68393766.5112262.7668393.0002556 1.1502589-.5112262 2.3005179-.5112262s1.5336787.5109706 2.300518.5112262 1.5336786-.5112262 2.6839376-.5112262c.5034837 0 1.0416745.1933458 1.5336786.3195164v1.0384538s-.9956258-.3355178-1.5336786-.3355178c-.7668393 0-1.5336787.5112262-2.6839376.5112262-1.150259 0-1.5336787-.5109706-2.300518-.5112262-.7871452.0177396-1.150259.5112262-2.3005179.5112262-1.15025902 0-1.91709834-.5114818-2.68393766-.5112262s-1.53367864.3355178-1.53367864.3355178zm5.9106217-12.3195164c.0843907.35195672.2396373.69616254.2396373 1.06614781 0 .79961086-.3836114 1.33268477-.3834197 1.86575868-.0001917.53307391.3834197.79961086.3834197 1.59922172 0 .79961089-.383228 1.06614779-.3834197 1.59922169s.3834197 1.0661478.3834197 1.8657587c0 .3500003-.1450093.7241276-.2396373 1.0661478h-.7788404s.2516384-.6921165.2516384-1.0661478c0-.5330739-.3834197-1.0661478-.3834197-1.8657587 0-.7996108.3832279-1.0661478.3834197-1.59922169-.0133047-.5471897-.3834197-.79961086-.3834197-1.59922172s.3836114-1.33268477.3834197-1.86575868c-.0001918-.5330739-.2516384-1.06614781-.2516384-1.06614781zm-2.00000001 0c.08439067.35195672.23963731.69616254.23963731 1.06614781 0 .79961086-.38361139 1.33268477-.38341968 1.86575868-.00019171.53307391.38341968.79961086.38341968 1.59922172 0 .79961089-.38322797 1.06614779-.38341968 1.59922169s.38341968 1.0661478.38341968 1.8657587c0 .3500003-.1450093.7241276-.23963731 1.0661478h-.77884035s.25163832-.6921165.25163832-1.0661478c0-.5330739-.38341966-1.0661478-.38341966-1.8657587 0-.7996108.38322795-1.0661478.38341966-1.59922169-.01330466-.5471897-.38341966-.79961086-.38341966-1.59922172s.38361137-1.33268477.38341966-1.86575868c-.00019171-.5330739-.25163832-1.06614781-.25163832-1.06614781zm4.00000001 0c.0843907.35195672.2396373.69616254.2396373 1.06614781 0 .79961086-.3836114 1.33268477-.3834197 1.86575868-.0001917.53307391.3834197.79961086.3834197 1.59922172 0 .79961089-.383228 1.06614779-.3834197 1.59922169s.3834197 1.0661478.3834197 1.8657587c0 .3500003-.1450093.7241276-.2396373 1.0661478h-.7788404s.2516384-.6921165.2516384-1.0661478c0-.5330739-.3834197-1.0661478-.3834197-1.8657587 0-.7996108.3832279-1.0661478.3834197-1.59922169-.0133047-.5471897-.3834197-.79961086-.3834197-1.59922172s.3836114-1.33268477.3834197-1.86575868c-.0001918-.5330739-.2516384-1.06614781-.2516384-1.06614781zm2.0020268 0c.0843906.35195672.2396373.69616254.2396373 1.06614781 0 .79961086-.3836114 1.33268477-.3834197 1.86575868-.0001917.53307391.3834197.79961086.3834197 1.59922172 0 .79961089-.383228 1.06614779-.3834197 1.59922169s.3834197 1.0661478.3834197 1.8657587c0 .3500003-.1450093.7241276-.2396373 1.0661478h-.7788404s.2516383-.6921165.2516383-1.0661478c0-.5330739-.3834196-1.0661478-.3834196-1.8657587 0-.7996108.3832279-1.0661478.3834196-1.59922169-.0133046-.5471897-.3834196-.79961086-.3834196-1.59922172s.3836114-1.33268477.3834196-1.86575868c-.0001917-.5330739-.2516383-1.06614781-.2516383-1.06614781z"/></g></g></svg>

<svg width="24" height="24" viewBox="0 0 24 24">
  <g fill="none" fill-rule="evenodd">
    <circle cx="12" cy="12" r="12" fill="#FFF" opacity=".6"/>
    <circle cx="12" cy="12" r="11" fill="#14A0C2" opacity="0"/>
    <path fill="#14A0C2" d="M7.53367864,15 C8.68393762,15 9.45077694,15.5114818 10.2176163,15.5112262 C10.9844556,15.5114818 11.3678752,15 12.5181342,15 C13.6683932,15 14.0518129,15.5109706 14.8186522,15.5112262 C15.5854915,15.5114818 16.3523308,15 17.5025898,15 C18.0060735,15 18.5442643,15.1933458 19.0362684,15.3195164 L19.0362684,16.3579702 C19.0362684,16.3579702 18.0406426,16.0224524 17.5025898,16.0224524 C16.7357505,16.0224524 15.9689111,16.5336786 14.8186522,16.5336786 C13.6683932,16.5336786 13.2849735,16.022708 12.5181342,16.0224524 C11.730989,16.040192 11.3678752,16.5336786 10.2176163,16.5336786 C9.06735728,16.5336786 8.30051796,16.0221968 7.53367864,16.0224524 C6.76683932,16.022708 6,16.3579702 6,16.3579702 L6,15.3195164 C6.50629799,15.2069955 7.00144614,15 7.53367864,15 Z M6,17.3195164 C6.50629799,17.2069955 7.00144615,17 7.53367864,17 C8.68393762,17 9.45077694,17.5114818 10.2176163,17.5112262 C10.9844556,17.5114818 11.3678752,17 12.5181342,17 C13.6683932,17 14.0518129,17.5109706 14.8186522,17.5112262 C15.5854915,17.5114818 16.3523308,17 17.5025898,17 C18.0060735,17 18.5442643,17.1933458 19.0362684,17.3195164 L19.0362684,18.3579702 C19.0362684,18.3579702 18.0406426,18.0224524 17.5025898,18.0224524 C16.7357505,18.0224524 15.9689111,18.5336786 14.8186522,18.5336786 C13.6683932,18.5336786 13.2849735,18.022708 12.5181342,18.0224524 C11.730989,18.040192 11.3678752,18.5336786 10.2176163,18.5336786 C9.06735728,18.5336786 8.30051796,18.0221968 7.53367864,18.0224524 C6.76683932,18.022708 6,18.3579702 6,18.3579702 L6,17.3195164 Z M11.9106217,5 C11.9950124,5.35195672 12.150259,5.69616254 12.150259,6.06614781 C12.150259,6.86575867 11.7666476,7.39883258 11.7668393,7.93190649 C11.7666476,8.4649804 12.150259,8.73151735 12.150259,9.53112821 C12.150259,10.3307391 11.767031,10.597276 11.7668393,11.1303499 C11.7666476,11.6634238 12.150259,12.1964977 12.150259,12.9961086 C12.150259,13.3461089 12.0052497,13.7202362 11.9106217,14.0622564 L11.1317813,14.0622564 C11.1317813,14.0622564 11.3834197,13.3701399 11.3834197,12.9961086 C11.3834197,12.4630347 11,11.9299608 11,11.1303499 C11,10.3307391 11.3832279,10.0642021 11.3834197,9.53112821 C11.370115,8.98393851 11,8.73151735 11,7.93190649 C11,7.13229563 11.3836114,6.59922172 11.3834197,6.06614781 C11.3832279,5.53307391 11.1317813,5 11.1317813,5 L11.9106217,5 Z M9.91062169,5 C9.99501236,5.35195672 10.150259,5.69616254 10.150259,6.06614781 C10.150259,6.86575867 9.76664761,7.39883258 9.76683932,7.93190649 C9.76664761,8.4649804 10.150259,8.73151735 10.150259,9.53112821 C10.150259,10.3307391 9.76703103,10.597276 9.76683932,11.1303499 C9.76664761,11.6634238 10.150259,12.1964977 10.150259,12.9961086 C10.150259,13.3461089 10.0052497,13.7202362 9.91062169,14.0622564 L9.13178134,14.0622564 C9.13178134,14.0622564 9.38341966,13.3701399 9.38341966,12.9961086 C9.38341966,12.4630347 9,11.9299608 9,11.1303499 C9,10.3307391 9.38322795,10.0642021 9.38341966,9.53112821 C9.370115,8.98393851 9,8.73151735 9,7.93190649 C9,7.13229563 9.38361137,6.59922172 9.38341966,6.06614781 C9.38322795,5.53307391 9.13178134,5 9.13178134,5 L9.91062169,5 Z M13.9106217,5 C13.9950124,5.35195672 14.150259,5.69616254 14.150259,6.06614781 C14.150259,6.86575867 13.7666476,7.39883258 13.7668393,7.93190649 C13.7666476,8.4649804 14.150259,8.73151735 14.150259,9.53112821 C14.150259,10.3307391 13.767031,10.597276 13.7668393,11.1303499 C13.7666476,11.6634238 14.150259,12.1964977 14.150259,12.9961086 C14.150259,13.3461089 14.0052497,13.7202362 13.9106217,14.0622564 L13.1317813,14.0622564 C13.1317813,14.0622564 13.3834197,13.3701399 13.3834197,12.9961086 C13.3834197,12.4630347 13,11.9299608 13,11.1303499 C13,10.3307391 13.3832279,10.0642021 13.3834197,9.53112821 C13.370115,8.98393851 13,8.73151735 13,7.93190649 C13,7.13229563 13.3836114,6.59922172 13.3834197,6.06614781 C13.3832279,5.53307391 13.1317813,5 13.1317813,5 L13.9106217,5 Z M15.9126485,5 C15.9970391,5.35195672 16.1522858,5.69616254 16.1522858,6.06614781 C16.1522858,6.86575867 15.7686744,7.39883258 15.7688661,7.93190649 C15.7686744,8.4649804 16.1522858,8.73151735 16.1522858,9.53112821 C16.1522858,10.3307391 15.7690578,10.597276 15.7688661,11.1303499 C15.7686744,11.6634238 16.1522858,12.1964977 16.1522858,12.9961086 C16.1522858,13.3461089 16.0072765,13.7202362 15.9126485,14.0622564 L15.1338081,14.0622564 C15.1338081,14.0622564 15.3854464,13.3701399 15.3854464,12.9961086 C15.3854464,12.4630347 15.0020268,11.9299608 15.0020268,11.1303499 C15.0020268,10.3307391 15.3852547,10.0642021 15.3854464,9.53112821 C15.3721418,8.98393851 15.0020268,8.73151735 15.0020268,7.93190649 C15.0020268,7.13229563 15.3856382,6.59922172 15.3854464,6.06614781 C15.3852547,5.53307391 15.1338081,5 15.1338081,5 L15.9126485,5 Z"/>
  </g>
</svg>
